X: 4
T: Reel de P\'eribonka
I: RJ R-114 G reel
M: C|
R: reel
K: G
D |:\
"G"GABA GEED | "D7"FGAG FDD2 | "G"GABc dBge |\
[1,3 "D7"dBAc "G"BGEF :|[2,4 "D7"dcAc "G"BGG :| 
|: B |\
"G"dBBA dBBe | dBBA B2Be | dBBA Bdge |\
[1,3 "D7"dcAc "G"BGG :|[2,4 "D7"dcAc "G"BGG :|
